X:641
T: EIN BLUM STEHT AUF DER HEIDE
N: E2011
O: Europa, Mitteleuropa, Deutschland
R: geistlich, Gebet, Jesus - Lied
M: 6/4
L: 1/4
K: G
G | B2Bc2B | d3c2
B | A2GG2A | B3A2
G | B2Bc2B | d3c2
B | A2GG2A | B3A2
d | d2cB2A | G3D2
D | G2FG2A | B3A2
G | B2Bc2d | d3c2
B | c2BA2G | F3D2
D | G2AB2c | B2AG2

@@@ Tune index: 5325
